X: 37011
T: Siege Of Ennis, The
R: polka
M: 2/4
K: Gmajor
D>E DB,|DE GA|Bd AB/A/|GE cE|
D>E DB,|DE GA|Bd AB/A/|G2 G2:|
Bd dB|ce e>d|Bd AB/A/|GE ED|
Bd dB|ce e>f|ge fd|e2 e>f|
ge fd|ed B>A|Bd AB/A/|GE cE|
D>E DB,|DE GA|Bd AB/A/|G2 G2||
|:Bd Bd|Bd d2|ed Bd|ed BA|
Bd Bd|Bd d2|ed BA|AG G2||
|:GB d2|ed c2|dB GA|BA AB|
GB d2|ed c2|dB GE|ED D2:|

